X:1
T:Serug, 66.46.66.4
T:Serug, 66.46.66.4
T:Lowell Mason, 1839
T:Public Domain Courtesy of the Cyber Hymnal™
C:Lowell Mason, 1839
Z:Public Domain
Z:Courtesy of the Cyber Hymnal™
%%score ( 1 2 ) ( 3 4 )
L:1/8
Q:1/4=115
M:3/4
K:Ab
V:1 treble 
V:2 treble 
V:3 bass 
V:4 bass 
V:1
 [CA]2 [DG]2 [EA]2 | ([FB]2 [EA]2) [EG]2 | [EA]6 | [Ec]2 [EB]2 [CA]2 | [Fd]4 [Ec]2 | [EB]6 | %6
 [FA]2 [EG]2 [=DF]2 | E6 | [EB]2 [EG]2 E2 | [EA]3 [EB] [Ec]2 | [EB]2 [EG]2 E2 | [EA]3 [EB] [Ec]2 | %12
 [Dd]2 [Ec]2 [EB]2 | [Ee]3 [Gd] [Ac]2 | [FB]2 [EA]2 [EG]2 | [EA]6 |] %16
V:2
 x6 | x6 | x6 | x6 | x6 | x6 | x6 | E6 | x4 E2 | x6 | x4 E2 | x6 | x6 | x6 | x6 | x6 |] %16
V:3
 [A,,C]2 [B,,B,]2 [C,A,]2 | ([D,D]2 [E,C]2) [E,B,]2 | [A,,C]6 | A,2 [E,G,]2 [F,A,]2 | A,4 A,2 | %5
 [E,G,]6 | [A,,C]2 [B,,B,]2 [B,,A,]2 | [E,G,]6 | [E,G,]2 [E,B,]2 [D,G,]2 | %9
 [C,A,]3 [B,,G,] [A,,A,]2 | [E,G,]2 [E,B,]2 [D,G,]2 | [C,A,]3 [E,G,] A,2 | %12
 [F,A,]2 [E,A,]2 [D,G,]2 | [C,A,]3 [E,B,] [F,A,]2 | [D,D]2 [E,C]2 (B,D) | [A,,C]6 |] %16
V:4
 x6 | x6 | x6 | A,2 x4 | (D,2 F,2) A,2 | x6 | x6 | x6 | x6 | x6 | x6 | x4 A,2 | x6 | x6 | x4 E,2 | %15
 x6 |] %16

